X:1
T:James Gibb editions
T:Si come sete bella - Festa
T:#
%%score [ 1 2 3 ]
L:1/8
Q:1/4=120
M:2/2
K:F
V:1 treble nm="Soprano" snm="S"
V:2 treble nm="Alto" snm="A"
V:3 treble-8 nm="Tenor" snm="T"
V:1
"^Si come sete bella""^Costanzo Festa\n(1490-1545)" z8 | D4 F2 G2 | A2 F2 B4 | A8 | z2 G2 G2 F2 | %5
w: |Si co- me|se- te bel-|la,|Gen- til ma-|
 E4 D2 D2 |[M:2/2] (G6 FE | FGAB A2) (G2- | G2 F2) G4 | D4 d3 d | d2 A2 B4 | F4 B3 B | B2 A2 G4 | %13
w: don- na, gen-|til\- * *|* * * * * ma\-|* * don|na, Fu- sti~~an-|chor pie- to-|sa, fu- sti~~an-|chor pie- to-|
 F4 z2 D2 | F3 G A2 A2 | G4 z2 D2 | F3 G A2 F2 | B4 A4 | (d6 cB) | A2 B2 G4 | F2 d2 d2 B2 | %21
w: sa? Qual|ha'l mon- do di|voi, qual|ha'l mon- do di|voi Più|bel\- * *|* la co-|sa? Qual ha'l mon-|
 c2 c2 d2 d2 | c3 B A4 | G4 z2 d2 | c2 B2 c2 c2 | d2 d2 z2 d2 | c2 B2 c2 c2 | d2 d2 z2 d2 | %28
w: do di voi Più|bel- la co-|sa? Don-|que che cru- del-|ta- de Spen-|ga tan- ta bel-|ta- de, Et|
 c2 A2 B3 B | A2 F2 G2 E2 | D2 D2 z4 | d3 d _e2 (d2- | d2 ^c2) (d=cBA | G2) A2 z2 G2 | BBAB c2 G2 | %35
w: priv' il mon- do|Del suo prim' ho-|no- re,|del suo prim' ho\-|* * no\- * * *|* re, Hai|che no'l vo- gli~~a- mo- re,|
 z4 A2 cc | Bc d2 A2 (DE | FGAB) c2 G2 | (B3 A) G2 d2 | c2 B2 A2 G2 | F2 _E2 z2 d2 | d2 d2 c2 d2 | %42
w: hai che no'l|vo- gli~~a- mo- re, no'l *|* * * * vo- gli~~a-|mo\- * re, hai|che no'l vo- gli~~a-|mo- re, hai|che no'l vo- gli~~a-|
 (_e4 d4 | c2 B2 A4) | G2 d2 d2 c2 |[Q:1/4=118] A2[Q:1/4=114] (B3[Q:1/4=111] A)[Q:1/4=109] (B2- | %46
w: mo\- *||re, hai che no'l|vo- gli~~a\- * mo\-|
[Q:1/4=106] B2[Q:1/4=104] A[Q:1/4=102]G)[Q:1/4=102] ^F4 |] %47
w: * * * re.|
V:2
 z8 | z8 | z4 D4 | F3 G A2 F2 | B4 A2 d2 | dd c2 B2 d2 |[M:2/2] d2 c2 B4 | A4 z2 d2 | c2 A2 B4 | %9
w: ||Si|co- me se- te|bel- la, Gen-|til ma- don- na, gen-|til ma- don-|na, gen-|til ma- don-|
 A4 B3 B | B2 F2 G4 | D4 d3 d | d2 c2 B4 | A8 | z2 A2 c2 c2 | B2 G2 (B3 A/G/) | A2 d2 c2 A2 | %17
w: na, Fu- sti~~an-|chor pie- to-|sa, fu- sti~~an-|chor pie- to-|sa?|Qual ha'l mon-|do di vo\- * *|i Più bel- la|
 (d6 c2 | B3 A G4) | F4 z4 | z2 D2 F2 G2 | A3 F B4 | A2 G4 ^F2 | G4 D2 B2 | A2 F2 G2 G2 | %25
w: co\- *||sa?|Qual ha'l mon-|do di voi|Più bel- la|co- sa? Don-|que che cru- del-|
 B4 A2 D2 | E2 F2 G4 | A2 (B3 A G2- | G2 ^F2) G2 d2 | c2 A2 B2 G2 | A2 F2 (G3 A | B3 A G2) F2 | %32
w: ta- de Spen-|ga tan- ta|bel- ta\- * *|* * de, Et|priv' il mon- do|Del suo prim' *|* * * ho-|
 E4 D4 | D2 FF EF G2 | D4 z2 E2 | GGFG A2 E2 | G2 (DE FGAG | AB c4 BA | G2) d2 c2 B2 | %39
w: no- re,|Hai che no'l vo- gli~~a- mo-|re, hai|che no'l vo- gli~~a- mo- re,|hai che, * * * * *||* hai che no'l|
 A2 G2 D2 G2 | z2 c2 AABB | G2 F4 F2 | G2 A2 B3 B | (A2 G4 ^F2) | G2 B2 B2 A2 | F2 F2 G4- | %46
w: vo- gli~~a- mo- re,|hai che no'l vo- gli~~a-|mo- re, hai|che no'l vo- gli~~a-|mo\- * *|re, hai che no'l|vo- gli~~a- mo\-|
 G4 A4 |] %47
w: * re.|
V:3
 G4 B2 c2 | d2 B4 (_e2 | c2 d2) (GABc | d2) d2 d2 d2 | g4 d4 | z2 g2 g2 f2 | %6
w: Si co- me|se- te bel\-|* * la, * * *|* Gen- til ma-|don- na,|gen- til ma-|
[M:2/2][K:treble-8] e4 d2 d2- | d2 c2 d2 B2 | A4 G2 g2- | g2 f2 g2 g2 | d4 G4 | B6 B2 | B2 F2 G4 | %13
w: don- na, Fu\-|* sti~~an- chor pie-|to- sa, fu\-|* sti~~an- chor pie-|to- sa,|fu- sti~~an-|chor pie- to-|
 d2 d2 f3 e | d2 d2 (cBcd | _e4) d2 G2 | d2 B2 (c2 d2 | GABc d4) | G2 z G B2 c2 | d2 B2 _e4 | %20
w: sa? Qual ha'l mon-|do di vo\- * * *|* i Più|bel- la co\- *||sa? Qual ha'l mon-|do di vo-|
 d2 d2 d2 _e2 | (c4 B4) | (c4 d4) | z2 G2 B3 B | c2 d2 _e4 | d2 G2 A2 B2 | c2 d2 _e4 | %27
w: i Più bel- la|co\- *|sa? *|Don- que che|cru- del- ta-|de Spen- ga tan-|ta bel- ta-|
 d2 G2 B2 B2 | A4 G2 B2 | cc d2 G2 g2 | f2 d2 _e3 e | d2 B2 c2 d2 | A4 d2 G2 | BBAB c2 G2 | %34
w: de, tan- ta bel-|ta- de, Et|priv' il mon- do, et|priv' il mon- do|Del suo prim' ho-|no- re, Hai|che no'l vo- gli~~a- mo- re,|
 z4 A2 cc | Bc d2 A2 A2 | (GABc de f2) | d2 c4 (_e2- | ed B2) c2 G2 | z2 g2 f2 _e2 | d2 c2 (d2 GA | %41
w: hai che no'l|vo- gli~~a- mo- re, hai|che * * * * * *|no'l vo- gli~~a\-|* * * mo- re,|hai che no'l|vo- gli~~a- mo\- * *|
 Bcde) f2 d2 | c4 B4 | c2 c2 d4 | G2 G2 B2 c2 | d2 B2 _e4- | e4 d4 |] %47
w: * * * * re, hai|che no'l|vo- gli~~a- mo-|re, hai che no'l|vo- gli~~a- mo\-|* re.|

